packages/core/assets/Icons/home_filled.svg

<svg viewBox="0 0 20 20" fill="none" xmlns="http://www.w3.org/2000/svg">
<path d="M3.33337 15.8334V8.33335C3.33337 8.06946 3.3924 7.81946 3.51046 7.58335C3.62851 7.34724 3.79171 7.1528 4.00004 7.00002L9.00004 3.25002C9.29171 3.0278 9.62504 2.91669 10 2.91669C10.375 2.91669 10.7084 3.0278 11 3.25002L16 7.00002C16.2084 7.1528 16.3716 7.34724 16.4896 7.58335C16.6077 7.81946 16.6667 8.06946 16.6667 8.33335V15.8334C16.6667 16.2917 16.5035 16.684 16.1771 17.0104C15.8507 17.3368 15.4584 17.5 15 17.5H12.5C12.2639 17.5 12.066 17.4202 11.9063 17.2604C11.7466 17.1007 11.6667 16.9028 11.6667 16.6667V12.5C11.6667 12.2639 11.5868 12.066 11.4271 11.9063C11.2674 11.7465 11.0695 11.6667 10.8334 11.6667H9.16671C8.9306 11.6667 8.73268 11.7465 8.57296 11.9063C8.41323 12.066 8.33337 12.2639 8.33337 12.5V16.6667C8.33337 16.9028 8.25351 17.1007 8.09379 17.2604C7.93407 17.4202 7.73615 17.5 7.50004 17.5H5.00004C4.54171 17.5 4.14935 17.3368 3.82296 17.0104C3.49657 16.684 3.33337 16.2917 3.33337 15.8334Z" fill="currentColor"/>
</svg>

<svg xmlns="http://www.w3.org/2000/svg" width="20" height="20" fill="none" viewBox="0 0 20 20">
  <path fill="#201F1F" d="M3.333 15.833v-7.5A1.655 1.655 0 0 1 4 7l5-3.75a1.606 1.606 0 0 1 1-.333c.375 0 .708.11 1 .333L16 7a1.654 1.654 0 0 1 .667 1.333v7.5c0 .459-.164.851-.49 1.177-.326.327-.719.49-1.177.49h-2.5a.806.806 0 0 1-.594-.24.806.806 0 0 1-.24-.593V12.5a.806.806 0 0 0-.239-.594.806.806 0 0 0-.594-.24H9.167a.806.806 0 0 0-.594.24.806.806 0 0 0-.24.594v4.167c0 .236-.08.434-.24.593a.806.806 0 0 1-.593.24H5c-.458 0-.85-.163-1.177-.49a1.605 1.605 0 0 1-.49-1.177Z"/>
</svg>
